X:160
T:Valse-clog Lacroix
Z:robin.beech@mcgill.ca
S:Danse ce soir - Laurie Hart and Greg Sandell
M:3/4
L:1/8
K:D
AA Bc  | d2- dc d2 | e2- ed e2 | f2 a2 f2 | e2 d2 e2 | 
f2 d'2 b2 | a2- af d2 | e2 ef ed | c2 B2 A2 | d2- dc d2 | 
e2 d2- de | f2 a2 f2 | e2 d2- de | f2 d'2 b2 | a2 f2 d2 | eb ge Bc | d2 ::
AA Bc | dc de fg | a2 f2 (3dfa | d'z c'2 b2 | a2- ab af | 
g2 ga ge | f2 fg fd | e2 efed | c2 B2 A2 | dc de fg | 
a2 f2 (3dfa | d'z c'2 b2 | a2- ab af | g2 ga ge | f2 fg fd | eb ge BA | d2 :|

